X:0465
M:6/8
L:1/8
Q:3/8=120
K:D
f/g/|afd    afd|efd   Tc2A|(G/A/B).G (F/G/A).F|BGE E2
f/g/|afd    afd|efd   Tc2A|(B/c/d)B   AFd     |AFD D2:|

